X: 1
T: LAST NIGHT'S FUN -- REEL
B: Ryan's Mammoth Collection of Fiddle Tunes
R: reel
M: 2/4
L: 1/16
Z: Contributed 20010523142653 by John Chambers jc:trillian.mit.edu
K: A
vAF \
| EAAc BAaf | ecBd cAFA | EAAc BAaf | ecBc A2AF \
| EAAc BAaf | ecBd cAFA | EAAc BAaf | ecBc A2 :|
|: ((3uefg) \
|  agaf eace | dBcA BAfg | agaf eac'a | babc' a2ab \
| c'afa eace | dBcA BAFA | BAec BAaf  | ecBc  A2 :|
